images/svg/logo.svg

<svg width="587.2" height="416.82" version="1.1" viewBox="0 0 587.2027 416.81866" xml:space="preserve" xmlns="http://www.w3.org/2000/svg"><defs><linearGradient id="grad" x1="0%" y1="0%" x2="0%" y2="100%"><stop offset="0%" stop-color="#55646e" class="stop-1"></stop><stop offset="100%" stop-color="#688595" class="stop-2"></stop>
    </linearGradient><clipPath id="clipPath58"><path d="m0 312.61h440.4v-312.61h-440.4z"/></clipPath></defs><g transform="matrix(1.3333 0 0 -1.3333 0 416.82)"><g transform="translate(104.59 312.61)"><path d="m0 0-79.394-67.952 19.78-23.979h29.993l-17.466 21.174 55.635 47.619h217.02l55.725-47.625-17.461-21.168h29.995l19.785 23.985-79.502 67.946z" /></g><g transform="translate(291.95 121.68)"><path d="m0 0-70.376-85.319-70.379 85.319h-29.997l100.38-121.68 100.37 121.68z" /></g><path d="m0 140.8h14.199v61.53h-14.199z"/><g clip-path="url(#clipPath58)"><g transform="translate(80.41 164.74)"><path d="m0 0-7.799 21.158c-0.555 1.855-1.021 3.62-1.39 5.292h-0.279c-0.186-1.488-0.652-3.342-1.39-5.569l-6.962-20.881zm22.271-23.945h-15.311l-4.458 13.365h-23.387l-4.453-13.365h-15.034l22.829 61.53h16.703z" /></g><g transform="translate(172.29 140.8)"><path d="m0 0h-13.363v36.474c0 3.897 0.181 8.532 0.555 13.921h-0.275c-0.559-3.714-1.301-7.24-2.227-10.58l-11.416-39.815h-11.694l-11.416 40.929c-0.556 2.226-1.302 5.38-2.227 9.466h-0.281c0-1.115 0.093-2.693 0.281-4.734 0.181-5.57 0.279-9.559 0.279-11.973v-33.688h-13.086v61.53h20.601l10.86-40.368c0.184-1.114 0.461-3.342 0.835-6.685 0 0.558 0.089 1.298 0.278 2.227 0 2.41 0.184 3.898 0.558 4.458l10.859 40.368h20.879z" /></g><g transform="translate(259.24 140.8)"><path d="m0 0h-13.924v24.781h-26.726v-24.781h-13.92v61.53h13.92v-24.778h26.726v24.778h13.924z" /></g><g transform="translate(315.12 140.8)"><path d="m0 0h-48.172v61.53h47.334v-11.413h-33.414v-13.365h31.188v-11.417h-31.188v-14.475h34.252z" /></g><g transform="translate(347.96 191.47)"><path d="m0 0h-11.971v-16.428h11.971c7.424 0 11.041 2.689 10.861 8.074 0.369 5.75-3.252 8.536-10.861 8.354m28.678-50.395h-17.541l-15.035 23.666h-8.073v-23.945h-13.922v61.53h28.12c15.037-0.373 22.832-6.498 23.388-18.375 0.182-10.209-4.826-16.336-15.035-18.374z" /></g><g transform="translate(425.09 171.15)"><path d="m0 0c-0.377 12.807-5.478 19.49-15.313 20.047-10.023-0.557-15.313-7.24-15.872-20.047 0.369-12.623 5.568-19.212 15.593-19.769 10.024 0.369 15.215 6.959 15.592 19.769m15.313 0c-1.117-19.866-11.233-30.349-30.35-31.463-19.305 1.114-29.513 11.597-30.623 31.463 0.926 20.603 11.136 31.274 30.623 32.017 18.933-1.111 29.047-11.789 30.35-32.017" /></g></g></g></svg>

<?xml version="1.0" encoding="UTF-8" standalone="no"?>
<svg
   xmlns:dc="http://purl.org/dc/elements/1.1/"
   xmlns:cc="http://creativecommons.org/ns#"
   xmlns:rdf="http://www.w3.org/1999/02/22-rdf-syntax-ns#"
   xmlns:svg="http://www.w3.org/2000/svg"
   xmlns="http://www.w3.org/2000/svg"
   viewBox="0 0 587.2027 416.81866"
   height="416.81866"
   width="587.2027"
   xml:space="preserve"
   id="svg4485"
   version="1.1"><metadata
     id="metadata4491"><rdf:RDF><cc:Work
         rdf:about=""><dc:format>image/svg+xml</dc:format><dc:type
           rdf:resource="http://purl.org/dc/dcmitype/StillImage" /><dc:title></dc:title></cc:Work></rdf:RDF></metadata><defs
     id="defs4489"><clipPath
       id="clipPath4511"
       clipPathUnits="userSpaceOnUse"><path
         id="path4509"
         d="M 0,312.614 H 440.402 V 0 H 0 Z" /></clipPath></defs><g
     transform="matrix(1.3333333,0,0,-1.3333333,0,416.81867)"
     id="g4493"><g
       transform="translate(104.5872,312.6141)"
       id="g4495"><path
         id="path4497"
         style="fill:#ad1000;fill-opacity:1;fill-rule:nonzero;stroke:none"
         d="m 0,0 -79.394,-67.952 19.78,-23.979 h 29.993 l -17.466,21.174 55.635,47.619 h 217.02 l 55.725,-47.625 -17.461,-21.168 h 29.995 L 313.612,-67.946 234.11,0 Z" /></g><g
       transform="translate(291.951,121.6827)"
       id="g4499"><path
         id="path4501"
         style="fill:#ad1000;fill-opacity:1;fill-rule:nonzero;stroke:none"
         d="M 0,0 -70.376,-85.319 -140.755,0 h -29.997 L -70.376,-121.683 29.996,0 Z" /></g><path
       id="path4503"
       style="fill:#202b70;fill-opacity:1;fill-rule:nonzero;stroke:none"
       d="m 0,140.797 h 14.199 v 61.53 H 0 Z" /><g
       id="g4505"><g
         clip-path="url(#clipPath4511)"
         id="g4507"><g
           transform="translate(80.4101,164.7422)"
           id="g4513"><path
             id="path4515"
             style="fill:#202b70;fill-opacity:1;fill-rule:nonzero;stroke:none"
             d="m 0,0 -7.799,21.158 c -0.555,1.855 -1.021,3.62 -1.39,5.292 h -0.279 c -0.186,-1.488 -0.652,-3.342 -1.39,-5.569 L -17.82,0 Z M 22.271,-23.945 H 6.96 L 2.502,-10.58 h -23.387 l -4.453,-13.365 h -15.034 l 22.829,61.53 H -0.84 Z" /></g><g
           transform="translate(172.2861,140.7969)"
           id="g4517"><path
             id="path4519"
             style="fill:#202b70;fill-opacity:1;fill-rule:nonzero;stroke:none"
             d="m 0,0 h -13.363 v 36.474 c 0,3.897 0.181,8.532 0.555,13.921 h -0.275 c -0.559,-3.714 -1.301,-7.24 -2.227,-10.58 L -26.726,0 H -38.42 l -11.416,40.929 c -0.556,2.226 -1.302,5.38 -2.227,9.466 h -0.281 c 0,-1.115 0.093,-2.693 0.281,-4.734 0.181,-5.57 0.279,-9.559 0.279,-11.973 V 0 H -64.87 v 61.53 h 20.601 l 10.86,-40.368 c 0.184,-1.114 0.461,-3.342 0.835,-6.685 0,0.558 0.089,1.298 0.278,2.227 0,2.41 0.184,3.898 0.558,4.458 L -20.879,61.53 H 0 Z" /></g><g
           transform="translate(259.2422,140.7969)"
           id="g4521"><path
             id="path4523"
             style="fill:#202b70;fill-opacity:1;fill-rule:nonzero;stroke:none"
             d="M 0,0 H -13.924 V 24.781 H -40.65 V 0 h -13.92 v 61.53 h 13.92 V 36.752 h 26.726 V 61.53 H 0 Z" /></g><g
           transform="translate(315.1152,140.7969)"
           id="g4525"><path
             id="path4527"
             style="fill:#202b70;fill-opacity:1;fill-rule:nonzero;stroke:none"
             d="M 0,0 H -48.172 V 61.53 H -0.838 V 50.117 H -34.252 V 36.752 H -3.064 V 25.335 H -34.252 V 10.86 L 0,10.86 Z" /></g><g
           transform="translate(347.9648,191.4707)"
           id="g4529"><path
             id="path4531"
             style="fill:#202b70;fill-opacity:1;fill-rule:nonzero;stroke:none"
             d="M 0,0 H -11.971 V -16.428 H 0 c 7.424,0 11.041,2.689 10.861,8.074 C 11.23,-2.604 7.609,0.182 0,0 M 28.678,-50.395 H 11.137 l -15.035,23.666 h -8.073 v -23.945 h -13.922 v 61.53 H 2.227 C 17.264,10.483 25.059,4.358 25.615,-7.519 25.797,-17.728 20.789,-23.855 10.58,-25.893 Z" /></g><g
           transform="translate(425.0898,171.1455)"
           id="g4533"><path
             id="path4535"
             style="fill:#202b70;fill-opacity:1;fill-rule:nonzero;stroke:none"
             d="M 0,0 C -0.377,12.807 -5.478,19.49 -15.313,20.047 -25.336,19.49 -30.626,12.807 -31.185,0 c 0.369,-12.623 5.568,-19.212 15.593,-19.769 C -5.568,-19.4 -0.377,-12.81 0,0 M 15.313,0 C 14.196,-19.866 4.08,-30.349 -15.037,-31.463 -34.342,-30.349 -44.55,-19.866 -45.66,0 -44.734,20.603 -34.524,31.274 -15.037,32.017 3.896,30.906 14.01,20.228 15.313,0" /></g></g></g></g></svg>
